svgs/mighty_doom.svg

<svg xmlns="http://www.w3.org/2000/svg" viewBox="0 0 192 192"><path fill="none" stroke="#000" stroke-linecap="round" stroke-linejoin="round" stroke-width="12" d="M52 62H29v62l23-19V62m14 0h23v49l-7 5-16-13V62m60 0h-23v49l7 5 16-13V62m37 63V62l-11 33-12-33v45"/></svg>

<svg
    xmlns="http://www.w3.org/2000/svg"
    viewBox="0 0 192 192"
    id="vector">
    <path
        id="path"
        d="M 52 62 L 29 62 L 29 124 L 52 105 L 52 62 M 66 62 L 89 62 L 89 111 L 82 116 L 66 103 L 66 62 M 126 62 L 103 62 L 103 111 L 110 116 L 126 103 L 126 62 M 163 125 L 163 62 L 152 95 L 140 62 L 140 107"
        fill="none"
        stroke="#000000"
        stroke-width="12"
        stroke-linecap="round"
        stroke-linejoin="round"/>
</svg>
